images/about.svg

<svg xmlns="http://www.w3.org/2000/svg" width="512" height="512" viewBox="0 0 512 512"><path d="M256 65.353c-108.81 0-206 73.248-206 173.431 0 35.533 12.684 70.421 35.135 97.493.948 31.723-17.552 77.223-34.217 110.37 44.665-8.147 108.165-26.147 136.963-43.95 158.557 38.939 274.119-59.02 274.119-163.914 0-100.732-97.868-173.43-206-173.43zm30.467 267.38h-52.126v-117.756h52.126v117.756zm-26.063-142.218c-15.535 0-28.128-12.596-28.128-28.13s12.593-28.129 28.128-28.129 28.127 12.595 28.127 28.129-12.592 28.13-28.127 28.13z"/></svg>

<?xml version="1.0" encoding="utf-8"?>


<!-- The icon can be used freely in both personal and commercial projects with no attribution required, but always appreciated. 
You may NOT sub-license, resell, rent, redistribute or otherwise transfer the icon without express written permission from iconmonstr.com -->


<!DOCTYPE svg PUBLIC "-//W3C//DTD SVG 1.1//EN" "http://www.w3.org/Graphics/SVG/1.1/DTD/svg11.dtd">

<svg version="1.1" xmlns="http://www.w3.org/2000/svg" xmlns:xlink="http://www.w3.org/1999/xlink" x="0px" y="0px"

	 width="512px" height="512px" viewBox="0 0 512 512" enable-background="new 0 0 512 512" xml:space="preserve">

<path id="info-7-icon" d="M256,65.353c-108.81,0-206,73.248-206,173.431c0,35.533,12.684,70.421,35.135,97.493

	C86.083,368,67.583,413.5,50.918,446.647c44.665-8.147,108.165-26.147,136.963-43.95C346.438,441.636,462,343.677,462,238.783

	C462,138.051,364.132,65.353,256,65.353z M286.467,332.733h-52.126V214.977h52.126V332.733z M260.404,190.515

	c-15.535,0-28.128-12.596-28.128-28.13s12.593-28.129,28.128-28.129s28.127,12.595,28.127,28.129S275.939,190.515,260.404,190.515z"

	/>

</svg>
